X:20
T:LESMRCH-3 Leslie's March
S:Playford, 1652, via Glen, ESM, p. 40.
Q:120
L:1/4
M:3/4
K:G
g|d3/2B/ A/G/|dDE/F/|G3/2B/ A/B/|G2g|d3/2B/ A/G/|d3/2D/ E/F/|\
G3/2B/ A/B/|G2||B/c/|d2d|d3/2 e/ d|e/d/ e/g/ a/b/|\
a3/2g/e|e/f/gg|g2d|aaa|b3|ab/a/ g/e/|gg/f/ e/d/|\
Bd=f|e2g|d3/2B/ A/G/|d3/2 D/E/F/|G3/2B/ A/B/|G2|]
